48x48/apps/sparkleshare.svg

<svg viewBox="0 0 48 48"><defs><linearGradient id="linearGradient3764" x1="1" x2="47" gradientUnits="userSpaceOnUse" gradientTransform="matrix(0,-1,1,0,-1.5e-6,47.999998)"><stop stop-color="#f15f1f" stop-opacity="1"/><stop offset="1" stop-color="#f26e32" stop-opacity="1"/></linearGradient><clipPath id="clipPath-868110525"><g transform="translate(0,-1004.3622)"><path d="m -24 13 c 0 1.105 -0.672 2 -1.5 2 -0.828 0 -1.5 -0.895 -1.5 -2 0 -1.105 0.672 -2 1.5 -2 0.828 0 1.5 0.895 1.5 2 z" transform="matrix(15.333333,0,0,11.5,414.99999,878.8622)" fill="#1890d0"/></g></clipPath><clipPath id="clipPath-879429400"><g transform="translate(0,-1004.3622)"><path d="m -24 13 c 0 1.105 -0.672 2 -1.5 2 -0.828 0 -1.5 -0.895 -1.5 -2 0 -1.105 0.672 -2 1.5 -2 0.828 0 1.5 0.895 1.5 2 z" transform="matrix(15.333333,0,0,11.5,414.99999,878.8622)" fill="#1890d0"/></g></clipPath></defs><g><path d="m 36.31 5 c 5.859 4.062 9.688 10.831 9.688 18.5 c 0 12.426 -10.07 22.5 -22.5 22.5 c -7.669 0 -14.438 -3.828 -18.5 -9.688 c 1.037 1.822 2.306 3.499 3.781 4.969 c 4.085 3.712 9.514 5.969 15.469 5.969 c 12.703 0 23 -10.298 23 -23 c 0 -5.954 -2.256 -11.384 -5.969 -15.469 c -1.469 -1.475 -3.147 -2.744 -4.969 -3.781 z m 4.969 3.781 c 3.854 4.113 6.219 9.637 6.219 15.719 c 0 12.703 -10.297 23 -23 23 c -6.081 0 -11.606 -2.364 -15.719 -6.219 c 4.16 4.144 9.883 6.719 16.219 6.719 c 12.703 0 23 -10.298 23 -23 c 0 -6.335 -2.575 -12.06 -6.719 -16.219 z" opacity="0.05"/><path d="m 41.28 8.781 c 3.712 4.085 5.969 9.514 5.969 15.469 c 0 12.703 -10.297 23 -23 23 c -5.954 0 -11.384 -2.256 -15.469 -5.969 c 4.113 3.854 9.637 6.219 15.719 6.219 c 12.703 0 23 -10.298 23 -23 c 0 -6.081 -2.364 -11.606 -6.219 -15.719 z" opacity="0.1"/><path d="m 31.25 2.375 c 8.615 3.154 14.75 11.417 14.75 21.13 c 0 12.426 -10.07 22.5 -22.5 22.5 c -9.708 0 -17.971 -6.135 -21.12 -14.75 a 23 23 0 0 0 44.875 -7 a 23 23 0 0 0 -16 -21.875 z" opacity="0.2"/></g><g><path d="m 24 1 c 12.703 0 23 10.297 23 23 c 0 12.703 -10.297 23 -23 23 -12.703 0 -23 -10.297 -23 -23 0 -12.703 10.297 -23 23 -23 z" fill="url(#linearGradient3764)" fill-opacity="1"/></g><g/><g><g clip-path="url(#clipPath-868110525)"><g transform="translate(1,1)"><g opacity="0.1"><!-- color: #f26e32 --><g><path d="m 6.747 3.721 c -0.133 0.02 -0.25 0.127 -0.282 0.259 l -0.561 1.752 l -0.128 0.064 l -1.723 0 c -0.097 0 -0.193 0.053 -0.25 0.129 c -0.127 0.149 -0.095 0.409 0.062 0.517 l 1.411 1.069 l 0.03 0.155 l -0.531 1.714 c -0.075 0.268 0.271 0.537 0.503 0.389 l 1.411 -1.068 l 0.181 0 l 1.411 1.068 c 0.122 0.084 0.299 0.068 0.408 -0.032 c 0.093 -0.088 0.131 -0.232 0.094 -0.356 l -0.531 -1.714 c -0.051 -0.01 0.021 -0.107 0.031 -0.155 l 1.411 -1.069 c 0.158 -0.109 0.19 -0.368 0.062 -0.518 c -0.061 -0.075 -0.153 -0.126 -0.25 -0.129 l -1.756 0 l -0.126 -0.064 l -0.531 -1.751 c -0.018 -0.061 -0.05 -0.118 -0.095 -0.162 c -0.066 -0.066 -0.16 -0.103 -0.25 -0.097 l 0.011 0 m -0.001 -0.001" transform="matrix(3.543307,0,0,3.543307,0,0)" stroke-opacity="0.902" fill="#000" stroke="#fff" stroke-linejoin="round" stroke-linecap="round" stroke-width="0.668" stroke-miterlimit="4"/></g></g></g></g></g><g><g clip-path="url(#clipPath-879429400)"><!-- color: #f26e32 --><g><path d="m 6.747 3.721 c -0.133 0.02 -0.25 0.127 -0.282 0.259 l -0.561 1.752 l -0.128 0.064 l -1.723 0 c -0.097 0 -0.193 0.053 -0.25 0.129 c -0.127 0.149 -0.095 0.409 0.062 0.517 l 1.411 1.069 l 0.03 0.155 l -0.531 1.714 c -0.075 0.268 0.271 0.537 0.503 0.389 l 1.411 -1.068 l 0.181 0 l 1.411 1.068 c 0.122 0.084 0.299 0.068 0.408 -0.032 c 0.093 -0.088 0.131 -0.232 0.094 -0.356 l -0.531 -1.714 c -0.051 -0.01 0.021 -0.107 0.031 -0.155 l 1.411 -1.069 c 0.158 -0.109 0.19 -0.368 0.062 -0.518 c -0.061 -0.075 -0.153 -0.126 -0.25 -0.129 l -1.756 0 l -0.126 -0.064 l -0.531 -1.751 c -0.018 -0.061 -0.05 -0.118 -0.095 -0.162 c -0.066 -0.066 -0.16 -0.103 -0.25 -0.097 l 0.011 0 m -0.001 -0.001" transform="matrix(3.543307,0,0,3.543307,0,0)" stroke-opacity="0.902" fill="none" stroke="#fff" stroke-linejoin="round" stroke-linecap="round" stroke-width="0.668" stroke-miterlimit="4"/></g></g></g><g><path d="m 40.03 7.531 c 3.712 4.084 5.969 9.514 5.969 15.469 0 12.703 -10.297 23 -23 23 c -5.954 0 -11.384 -2.256 -15.469 -5.969 4.178 4.291 10.01 6.969 16.469 6.969 c 12.703 0 23 -10.298 23 -23 0 -6.462 -2.677 -12.291 -6.969 -16.469 z" opacity="0.1"/></g></svg>

<?xml version="1.0" encoding="UTF-8" standalone="no"?>
<svg
   xmlns:dc="http://purl.org/dc/elements/1.1/"
   xmlns:cc="http://creativecommons.org/ns#"
   xmlns:rdf="http://www.w3.org/1999/02/22-rdf-syntax-ns#"
   xmlns:svg="http://www.w3.org/2000/svg"
   xmlns="http://www.w3.org/2000/svg"
   xmlns:sodipodi="http://sodipodi.sourceforge.net/DTD/sodipodi-0.dtd"
   xmlns:inkscape="http://www.inkscape.org/namespaces/inkscape"
   viewBox="0 0 48 48"
   id="svg2"
   version="1.1"
   inkscape:version="0.48.4 r9939"
   width="100%"
   height="100%"
   sodipodi:docname="sparkleshare.svg">
  <metadata
     id="metadata61">
    <rdf:RDF>
      <cc:Work
         rdf:about="">
        <dc:format>image/svg+xml</dc:format>
        <dc:type
           rdf:resource="http://purl.org/dc/dcmitype/StillImage" />
      </cc:Work>
    </rdf:RDF>
  </metadata>
  <sodipodi:namedview
     pagecolor="#ffffff"
     bordercolor="#666666"
     borderopacity="1"
     objecttolerance="10"
     gridtolerance="10"
     guidetolerance="10"
     inkscape:pageopacity="0"
     inkscape:pageshadow="2"
     inkscape:window-width="1375"
     inkscape:window-height="876"
     id="namedview59"
     showgrid="false"
     inkscape:zoom="4.9166667"
     inkscape:cx="-12"
     inkscape:cy="24"
     inkscape:window-x="65"
     inkscape:window-y="24"
     inkscape:window-maximized="1"
     inkscape:current-layer="svg2" />
  <defs
     id="defs4">
    <linearGradient
       id="linearGradient3764"
       x1="1"
       x2="47"
       gradientUnits="userSpaceOnUse"
       gradientTransform="matrix(0,-1,1,0,-1.5e-6,47.999998)">
      <stop
         stop-color="#f15f1f"
         stop-opacity="1"
         id="stop7" />
      <stop
         offset="1"
         stop-color="#f26e32"
         stop-opacity="1"
         id="stop9" />
    </linearGradient>
    <clipPath
       id="clipPath-868110525">
      <g
         transform="translate(0,-1004.3622)"
         id="g12">
        <path
           d="m -24 13 c 0 1.105 -0.672 2 -1.5 2 -0.828 0 -1.5 -0.895 -1.5 -2 0 -1.105 0.672 -2 1.5 -2 0.828 0 1.5 0.895 1.5 2 z"
           transform="matrix(15.333333,0,0,11.5,414.99999,878.8622)"
           fill="#1890d0"
           id="path14" />
      </g>
    </clipPath>
    <clipPath
       id="clipPath-879429400">
      <g
         transform="translate(0,-1004.3622)"
         id="g17">
        <path
           d="m -24 13 c 0 1.105 -0.672 2 -1.5 2 -0.828 0 -1.5 -0.895 -1.5 -2 0 -1.105 0.672 -2 1.5 -2 0.828 0 1.5 0.895 1.5 2 z"
           transform="matrix(15.333333,0,0,11.5,414.99999,878.8622)"
           fill="#1890d0"
           id="path19" />
      </g>
    </clipPath>
    <linearGradient
       id="linearGradient3764-9"
       x1="1"
       x2="47"
       gradientUnits="userSpaceOnUse"
       gradientTransform="matrix(0,-1,1,0,-1.5e-6,47.999998)">
      <stop
         stop-color="#b5945b"
         stop-opacity="1"
         id="stop7-9" />
      <stop
         offset="1"
         stop-color="#bb9e69"
         stop-opacity="1"
         id="stop9-5" />
    </linearGradient>
    <clipPath
       id="clipPath-899834956">
      <g
         transform="translate(0,-1004.3622)"
         id="g12-4">
        <path
           d="m -24 13 c 0 1.105 -0.672 2 -1.5 2 -0.828 0 -1.5 -0.895 -1.5 -2 0 -1.105 0.672 -2 1.5 -2 0.828 0 1.5 0.895 1.5 2 z"
           transform="matrix(15.333333,0,0,11.5,414.99999,878.8622)"
           fill="#1890d0"
           id="path14-5" />
      </g>
    </clipPath>
    <clipPath
       id="clipPath-909443126">
      <g
         transform="translate(0,-1004.3622)"
         id="g17-4">
        <path
           d="m -24 13 c 0 1.105 -0.672 2 -1.5 2 -0.828 0 -1.5 -0.895 -1.5 -2 0 -1.105 0.672 -2 1.5 -2 0.828 0 1.5 0.895 1.5 2 z"
           transform="matrix(15.333333,0,0,11.5,414.99999,878.8622)"
           fill="#1890d0"
           id="path19-4" />
      </g>
    </clipPath>
    <clipPath
       id="clipPath-909443126-7">
      <g
         transform="translate(0,-1004.3622)"
         id="g17-2">
        <path
           style="fill:#1890d0"
           inkscape:connector-curvature="0"
           d="m -24,13 c 0,1.105 -0.672,2 -1.5,2 -0.828,0 -1.5,-0.895 -1.5,-2 0,-1.105 0.672,-2 1.5,-2 0.828,0 1.5,0.895 1.5,2 z"
           transform="matrix(15.333333,0,0,11.5,414.99999,878.8622)"
           id="path19-3" />
      </g>
    </clipPath>
    <linearGradient
       id="linearGradient3759">
      <stop
         id="stop3761"
         offset="0"
         style="stop-color:#a75e15;stop-opacity:1;" />
      <stop
         id="stop3763"
         offset="1"
         style="stop-color:#ffffff;stop-opacity:0;" />
    </linearGradient>
    <linearGradient
       id="linearGradient3777">
      <stop
         id="stop3779"
         offset="0"
         style="stop-color:#e0dd00;stop-opacity:1;" />
      <stop
         id="stop3781"
         offset="1"
         style="stop-color:#000000;stop-opacity:0;" />
    </linearGradient>
  </defs>
  <g
     id="g33" />
  <g
     id="g3085">
    <g
       inkscape:label="shadows"
       id="layer2">
      <rect
         ry="13.03658"
         rx="13.03658"
         y="1"
         x="1"
         height="46"
         width="46"
         id="rect3007"
         style="opacity:0.1;fill:#000000;fill-opacity:1;fill-rule:nonzero;stroke:none" />
      <rect
         style="opacity:0.1;fill:#000000;fill-opacity:1;fill-rule:nonzero;stroke:none"
         id="rect3011"
         width="47"
         height="47"
         x="0.5"
         y="0.5"
         rx="13.319984"
         ry="13.319984" />
      <rect
         style="opacity:0.1;fill:#000000;fill-opacity:1;fill-rule:nonzero;stroke:none"
         id="rect3013"
         width="46.5"
         height="46.5"
         x="0.75"
         y="0.75"
         rx="13.178282"
         ry="13.178282" />
    </g>
    <g
       style="display:inline"
       inkscape:label="background-color"
       id="layer1">
      <rect
         transform="matrix(0,-1,1,0,0,0)"
         ry="12.753176"
         rx="12.753176"
         y="1.5"
         x="-46.5"
         height="45"
         width="45"
         id="rect2988"
         style="fill:#f15f1f;fill-opacity:1;fill-rule:nonzero;stroke:none" />
    </g>
  </g>
  <g
     transform="translate(-0.0231431,0.00442468)"
     id="g3861">
    <g
       id="g3863"
       clip-path="url(#clipPath-879429400)">
      <!-- color: #f26e32 -->
      <g
         id="g3865">
        <path
           style="fill:none;stroke:#ffffff;stroke-width:0.66799998;stroke-linecap:round;stroke-linejoin:round;stroke-miterlimit:4;stroke-opacity:0.90200022"
           inkscape:connector-curvature="0"
           id="path3867"
           stroke-miterlimit="4"
           transform="scale(3.543307,3.543307)"
           d="M 6.747,3.721 C 6.614,3.741 6.497,3.848 6.465,3.98 l -0.561,1.752 -0.128,0.064 -1.723,0 C 3.956,5.796 3.86,5.849 3.803,5.925 3.676,6.074 3.708,6.334 3.865,6.442 L 5.276,7.511 5.306,7.666 4.775,9.38 C 4.7,9.648 5.046,9.917 5.278,9.769 l 1.411,-1.068 0.181,0 1.411,1.068 C 8.403,9.853 8.58,9.837 8.689,9.737 8.782,9.649 8.82,9.505 8.783,9.381 L 8.252,7.667 C 8.201,7.657 8.273,7.56 8.283,7.512 L 9.694,6.443 C 9.852,6.334 9.884,6.075 9.756,5.925 9.695,5.85 9.603,5.799 9.506,5.796 L 7.75,5.796 7.624,5.732 7.093,3.981 C 7.075,3.92 7.043,3.863 6.998,3.819 6.932,3.753 6.838,3.716 6.748,3.722 l 0.011,0 M 6.758,3.721" />
      </g>
    </g>
  </g>
</svg>
